X:537
T: RUHT IHR WEICHEN SEELEN
N: F1043
O: Europa, Mitteleuropa, Deutschland
R: Trost - Lied
M: 4/4
L: 1/8
K: Bb
 | B3BA2B2 | c3AB2
cd | e3cd3B | d2c3^c
d=c | B2_A2G2F2 | F2E2
c3B | A2B2c2A2 | B4z4

